icons/caret-double-downleftB.svg

<svg width="24" height="24" viewBox="0 0 24 24" fill="none" xmlns="http://www.w3.org/2000/svg">
<path d="M11.8804 6.3696V11.8696C11.8804 11.9696 11.9804 12.0696 12.0804 12.0696H17.5804C17.7804 12.0696 17.8804 11.7696 17.7804 11.6696L12.3804 6.1696C12.1804 6.0696 11.8804 6.1696 11.8804 6.3696Z" fill="black"/>
<path fill-rule="evenodd" clip-rule="evenodd" d="M11.7921 5.45482C12.0615 5.35381 12.4059 5.34379 12.7158 5.49875L12.8279 5.55476L18.3142 11.1427C18.5144 11.3451 18.5632 11.5894 18.569 11.7465C18.5751 11.9129 18.5391 12.0699 18.4823 12.2025C18.3814 12.438 18.0985 12.8196 17.5804 12.8196H12.0804C11.7865 12.8196 11.5554 12.6802 11.4126 12.5374C11.2698 12.3946 11.1304 12.1635 11.1304 11.8696V6.36957C11.1304 5.83426 11.534 5.5516 11.7921 5.45482ZM12.6304 7.49472V11.3196H16.3857L12.6304 7.49472Z" fill="black"/>
<path d="M6.18042 12.1695V17.6695C6.18042 17.7695 6.28042 17.8695 6.38042 17.8695H11.8804C12.0804 17.8695 12.1804 17.5695 12.0804 17.4695L6.58042 11.9695C6.38042 11.8695 6.18042 11.9695 6.18042 12.1695Z" fill="black"/>
<path fill-rule="evenodd" clip-rule="evenodd" d="M5.97001 11.2863C6.28836 11.1271 6.63911 11.1604 6.91583 11.2988L7.02469 11.3532L12.6107 16.9393C12.8138 17.1423 12.8631 17.3886 12.869 17.5465C12.8751 17.7129 12.8391 17.8699 12.7823 18.0025C12.6813 18.238 12.3985 18.6196 11.8804 18.6196H6.38042C6.0865 18.6196 5.85535 18.4802 5.71259 18.3374C5.56983 18.1947 5.43042 17.9635 5.43042 17.6696V12.1696C5.43042 11.7935 5.63383 11.4544 5.97001 11.2863ZM6.93042 13.3803V17.1196H10.6698L6.93042 13.3803Z" fill="black"/>
</svg>

<svg xmlns="http://www.w3.org/2000/svg" fill="none" viewBox="0 0 24 24">
  <path fill="#000" d="M11.88 6.37v5.5c0 .1.1.2.2.2h5.5c.2 0 .3-.3.2-.4l-5.4-5.5c-.2-.1-.5 0-.5.2Z"/>
  <path fill="#000" fill-rule="evenodd" d="M11.792 5.455a1.17 1.17 0 0 1 .924.044l.112.056 5.486 5.588c.2.202.25.446.255.603.006.167-.03.324-.087.457-.1.235-.383.617-.902.617h-5.5a.95.95 0 0 1-.667-.283.95.95 0 0 1-.283-.667v-5.5c0-.536.404-.818.662-.915Zm.838 2.04v3.825h3.756L12.63 7.495Z" clip-rule="evenodd"/>
  <path fill="#000" d="M6.18 12.17v5.5c0 .1.1.2.2.2h5.5c.2 0 .3-.3.2-.4l-5.5-5.5c-.2-.1-.4 0-.4.2Z"/>
  <path fill="#000" fill-rule="evenodd" d="M5.97 11.286c.318-.159.67-.126.946.013l.109.054 5.586 5.586c.203.203.252.45.258.608.006.166-.03.323-.087.456-.1.235-.383.617-.902.617h-5.5a.95.95 0 0 1-.667-.283.95.95 0 0 1-.283-.667v-5.5c0-.377.204-.716.54-.884Zm.96 2.094v3.74h3.74l-3.74-3.74Z" clip-rule="evenodd"/>
</svg>
